report_00007_2020-12-11T15:55:29.892Z/network-rtt/comparison/sorted/11_vs_12.svg

<svg width="640" height="500" xmlns="http://www.w3.org/2000/svg" xmlns:xlink="http://www.w3.org/1999/xlink"><path fill="#fff" d="M0 0h640v500H0z"/><defs><path id="d" stroke-width=".222" stroke="currentColor" d="M-1-1h2v2h-2z"/><path id="b" stroke-width=".222" stroke="currentColor" d="M0-1.33l-1.33 2h2.66z"/><path id="f" stroke-width=".222" stroke="currentColor" d="M0 1.33L1.265.411.782-1.067l-1.564-.009-.483 1.487z"/><use xlink:href="#b" id="c" stroke="currentColor" transform="rotate(180)"/><use xlink:href="#d" id="e" stroke="currentColor" transform="rotate(45)"/><circle id="a" stroke-width=".222" stroke="currentColor" cx="0" cy="0" r="1"/></defs><g fill="none" color="#000" stroke="currentColor"><path stroke="#000" d="M62.2 400.9h9m543.8 0h-9"/><text transform="translate(53.9 404.8)" stroke="none" fill="#000" font-family="Arial" font-size="12" text-anchor="end"><tspan>0.03</tspan></text></g><g fill="none" color="#000" stroke="currentColor"><path stroke="#000" d="M62.2 338.9h9m543.8 0h-9"/><text transform="translate(53.9 342.8)" stroke="none" fill="#000" font-family="Arial" font-size="12" text-anchor="end"><tspan>0.04</tspan></text></g><g fill="none" color="#000" stroke="currentColor"><path stroke="#000" d="M62.2 277h9m543.8 0h-9"/><text transform="translate(53.9 280.9)" stroke="none" fill="#000" font-family="Arial" font-size="12" text-anchor="end"><tspan>0.05</tspan></text></g><g fill="none" color="#000" stroke="currentColor"><path stroke="#000" d="M62.2 215h9m543.8 0h-9"/><text transform="translate(53.9 218.9)" stroke="none" fill="#000" font-family="Arial" font-size="12" text-anchor="end"><tspan>0.06</tspan></text></g><g fill="none" color="#000" stroke="currentColor"><path stroke="#000" d="M62.2 153h9m543.8 0h-9"/><text transform="translate(53.9 156.9)" stroke="none" fill="#000" font-family="Arial" font-size="12" text-anchor="end"><tspan>0.07</tspan></text></g><g fill="none" color="#000" stroke="currentColor"><path stroke="#000" d="M62.2 91.1h9m543.8 0h-9"/><text transform="translate(53.9 95)" stroke="none" fill="#000" font-family="Arial" font-size="12" text-anchor="end"><tspan>0.08</tspan></text></g><g fill="none" color="#000" stroke="currentColor"><path stroke="#000" d="M62.2 29.1h9m543.8 0h-9"/><text transform="translate(53.9 33)" stroke="none" fill="#000" font-family="Arial" font-size="12" text-anchor="end"><tspan>0.09</tspan></text></g><g fill="none" color="#000" stroke="currentColor"><path stroke="#000" d="M62.2 428v-9m0-400.9v9"/><text transform="translate(62.2 449.9)" stroke="none" fill="#000" font-family="Arial" font-size="12" text-anchor="middle"><tspan>0</tspan></text></g><g fill="none" color="#000" stroke="currentColor"><path stroke="#000" d="M118 428v-9m0-400.9v9"/><text transform="translate(118 449.9)" stroke="none" fill="#000" font-family="Arial" font-size="12" text-anchor="middle"><tspan>10</tspan></text></g><g fill="none" color="#000" stroke="currentColor"><path stroke="#000" d="M173.9 428v-9m0-400.9v9"/><text transform="translate(173.9 449.9)" stroke="none" fill="#000" font-family="Arial" font-size="12" text-anchor="middle"><tspan>20</tspan></text></g><g fill="none" color="#000" stroke="currentColor"><path stroke="#000" d="M229.7 428v-9m0-400.9v9"/><text transform="translate(229.7 449.9)" stroke="none" fill="#000" font-family="Arial" font-size="12" text-anchor="middle"><tspan>30</tspan></text></g><g fill="none" color="#000" stroke="currentColor"><path stroke="#000" d="M285.6 428v-9m0-400.9v9"/><text transform="translate(285.6 449.9)" stroke="none" fill="#000" font-family="Arial" font-size="12" text-anchor="middle"><tspan>40</tspan></text></g><g fill="none" color="#000" stroke="currentColor"><path stroke="#000" d="M341.4 428v-9m0-400.9v9"/><text transform="translate(341.4 449.9)" stroke="none" fill="#000" font-family="Arial" font-size="12" text-anchor="middle"><tspan>50</tspan></text></g><g fill="none" color="#000" stroke="currentColor"><path stroke="#000" d="M397.2 428v-9m0-400.9v9"/><text transform="translate(397.2 449.9)" stroke="none" fill="#000" font-family="Arial" font-size="12" text-anchor="middle"><tspan>60</tspan></text></g><g fill="none" color="#000" stroke="currentColor"><path stroke="#000" d="M453.1 428v-9m0-400.9v9"/><text transform="translate(453.1 449.9)" stroke="none" fill="#000" font-family="Arial" font-size="12" text-anchor="middle"><tspan>70</tspan></text></g><g fill="none" color="#000" stroke="currentColor"><path stroke="#000" d="M508.9 428v-9m0-400.9v9"/><text transform="translate(508.9 449.9)" stroke="none" fill="#000" font-family="Arial" font-size="12" text-anchor="middle"><tspan>80</tspan></text></g><g fill="none" color="#000" stroke="currentColor"><path stroke="#000" d="M564.7 428v-9m0-400.9v9"/><text transform="translate(564.7 449.9)" stroke="none" fill="#000" font-family="Arial" font-size="12" text-anchor="middle"><tspan>90</tspan></text></g><path stroke="#000" d="M62.2 18.1V428H615V18.1H62.2z" fill="none" color="#000"/><text transform="translate(512.5 467.9)" stroke="none" fill="#000" font-family="Arial" font-size="12" text-anchor="end" color="#000"><tspan>pages+cached+noexternal+nofonts+nosvg+noimg</tspan></text><path stroke="#9400D3" d="M520.8 464H563M62.2 326.5l5.6-25.4 5.6-4.9 5.6-.6 5.5-5 5.6-2.5 5.6-4.9 5.6-1.9 5.6-1.2 5.6-.7h5.5l5.6-2.4 5.6-2.5 5.6-2.5 5.6-6.2 5.6-1.2 5.5-.6 5.6-6.2 5.6-1.9 5.6-1.2 5.6-4.4 5.6-1.8 5.5-1.9 5.6-1.2 5.6-4.4 5.6-3.7 5.6-1.2h5.6l5.5-8.7h5.6l5.6-.6 5.6-4.4 5.6-6.8 5.6-.6 5.6-1.2 5.5-2.5 5.6-3.1 5.6-5.6h5.6l5.6-.6 5.6-3.1h5.5l5.6-1.9 5.6-.6 5.6-2.5 5.6-2.5h11.1l5.6-1.2 5.6-.6 5.6-8.1 5.6-4.3 5.6-3.1 5.5-1.2 5.6-7.5 5.6-.6 5.6-3.1h5.6l5.6-1.9 5.5-3.7 5.6-1.8h5.6l5.6-6.2 5.6-.7 5.6-2.4 5.5-.7 5.6-1.8 5.6-.6 5.6-.7 5.6-.6 5.6-.6 5.6-1.9h5.5l5.6-1.8 5.6-5 5.6-1.2 5.6-1.9 5.6-.6 5.5-2.5 5.6-3.7 5.6-.6 5.6-1.2 5.6-1.3 5.6-1.8 5.5-3.8 5.6-1.8 5.6-.6 5.6-9.3 5.6-1.3 5.6-3.7 5.5-4.9h5.6l5.6-3.1 5.6-4.4 5.6-2.5 5.6-2.4 5.5-3.1 5.6-32.9 5.6-11.8L615 26" fill="none" color="#000"/><text transform="translate(512.5 485.9)" stroke="none" fill="#000" font-family="Arial" font-size="12" text-anchor="end" color="#000"><tspan>pages+cached+noexternal+nofonts+nosvg+noimg+nocss</tspan></text><path stroke="#009E73" d="M520.8 482H563M62.2 420.1L67.8 303l5.6-1.2 5.6-1.3 5.5-.6 5.6-6.2 5.6-6.2 5.6-3.7 5.6-1.9 5.6-4.9 5.5-1.9 5.6-1.2 5.6-4.4 5.6-4.9 5.6-.6 5.6-1.3 5.5-1.8 5.6-1.9 5.6-.6 5.6-3.7 5.6-2.5H185l5.6-2.5 5.6-12.4 5.6-3.1 5.6-2.5 5.6-1.2 5.5-1.3 5.6-4.3 5.6-1.8h5.6l5.6-1.9 5.6-3.1 5.6-2.5 5.5-1.8 5.6-5.6 5.6-1.9 5.6-1.2 5.6-4.4 5.6-1.2 5.5-.6 5.6-1.3 5.6-1.2 5.6-.6 5.6-.6 5.6-3.8 5.5-1.2 5.6-8.7h11.2l5.6-1.8 5.6-1.3 5.5-1.2 5.6-2.5 5.6-4.3h5.6l5.6-1.9 5.6-3.1 5.5-.6 5.6-.6 5.6-.6 5.6-1.9 5.6-1.2 5.6-3.8 5.5-1.8 5.6-.6 5.6-1.9 5.6-.6h11.2l5.6-7.5 5.5-.6 5.6-1.2 5.6-.6 5.6-.7 5.6-1.2 5.6-1.2 5.5-1.3 5.6-.6 5.6-.6 5.6-5.6h5.6l5.6-.6 5.5-8.7 5.6-1.2 5.6-1.3 5.6-19.8 5.6-3.1h5.6l5.5-6.2 5.6-4.9 5.6-3.1 5.6-6.2 5.6-1.9 5.6-9.3 5.5-1.2 5.6-9.3 5.6-.7 5.6-5.5" fill="none" color="#000"/><g fill="none" color="#000" stroke="currentColor"><path stroke="#000" d="M62.2 18.1V428H615V18.1H62.2z"/></g></svg>

<?xml version="1.0" encoding="utf-8"  standalone="no"?>
<svg 
 width="640" height="500"
 viewBox="0 0 640 500"
 xmlns="http://www.w3.org/2000/svg"
 xmlns:xlink="http://www.w3.org/1999/xlink"
>

<title>Gnuplot</title>
<desc>Produced by GNUPLOT 5.4 patchlevel 0 </desc>

<g id="gnuplot_canvas">

<rect x="0" y="0" width="640" height="500" fill="#ffffff"/>
<defs>

	<circle id='gpDot' r='0.5' stroke-width='0.5' stroke='currentColor'/>
	<path id='gpPt0' stroke-width='0.222' stroke='currentColor' d='M-1,0 h2 M0,-1 v2'/>
	<path id='gpPt1' stroke-width='0.222' stroke='currentColor' d='M-1,-1 L1,1 M1,-1 L-1,1'/>
	<path id='gpPt2' stroke-width='0.222' stroke='currentColor' d='M-1,0 L1,0 M0,-1 L0,1 M-1,-1 L1,1 M-1,1 L1,-1'/>
	<rect id='gpPt3' stroke-width='0.222' stroke='currentColor' x='-1' y='-1' width='2' height='2'/>
	<rect id='gpPt4' stroke-width='0.222' stroke='currentColor' fill='currentColor' x='-1' y='-1' width='2' height='2'/>
	<circle id='gpPt5' stroke-width='0.222' stroke='currentColor' cx='0' cy='0' r='1'/>
	<use xlink:href='#gpPt5' id='gpPt6' fill='currentColor' stroke='none'/>
	<path id='gpPt7' stroke-width='0.222' stroke='currentColor' d='M0,-1.33 L-1.33,0.67 L1.33,0.67 z'/>
	<use xlink:href='#gpPt7' id='gpPt8' fill='currentColor' stroke='none'/>
	<use xlink:href='#gpPt7' id='gpPt9' stroke='currentColor' transform='rotate(180)'/>
	<use xlink:href='#gpPt9' id='gpPt10' fill='currentColor' stroke='none'/>
	<use xlink:href='#gpPt3' id='gpPt11' stroke='currentColor' transform='rotate(45)'/>
	<use xlink:href='#gpPt11' id='gpPt12' fill='currentColor' stroke='none'/>
	<path id='gpPt13' stroke-width='0.222' stroke='currentColor' d='M0,1.330 L1.265,0.411 L0.782,-1.067 L-0.782,-1.076 L-1.265,0.411 z'/>
	<use xlink:href='#gpPt13' id='gpPt14' fill='currentColor' stroke='none'/>
	<filter id='textbox' filterUnits='objectBoundingBox' x='0' y='0' height='1' width='1'>
	  <feFlood flood-color='#FFFFFF' flood-opacity='1' result='bgnd'/>
	  <feComposite in='SourceGraphic' in2='bgnd' operator='atop'/>
	</filter>
	<filter id='greybox' filterUnits='objectBoundingBox' x='0' y='0' height='1' width='1'>
	  <feFlood flood-color='lightgrey' flood-opacity='1' result='grey'/>
	  <feComposite in='SourceGraphic' in2='grey' operator='atop'/>
	</filter>
</defs>
<g fill="none" color="#FFFFFF" stroke="black" stroke-width="1.00" stroke-linecap="butt" stroke-linejoin="miter">
</g>
<g fill="none" color="black" stroke="currentColor" stroke-width="1.00" stroke-linecap="butt" stroke-linejoin="miter">
	<path stroke='black'  d='M62.2,400.9 L71.2,400.9 M615.0,400.9 L606.0,400.9  '/>	<g transform="translate(53.9,404.8)" stroke="none" fill="black" font-family="Arial" font-size="12.00"  text-anchor="end">
		<text><tspan font-family="Arial" > 0.03</tspan></text>
	</g>
</g>
<g fill="none" color="black" stroke="currentColor" stroke-width="1.00" stroke-linecap="butt" stroke-linejoin="miter">
	<path stroke='black'  d='M62.2,338.9 L71.2,338.9 M615.0,338.9 L606.0,338.9  '/>	<g transform="translate(53.9,342.8)" stroke="none" fill="black" font-family="Arial" font-size="12.00"  text-anchor="end">
		<text><tspan font-family="Arial" > 0.04</tspan></text>
	</g>
</g>
<g fill="none" color="black" stroke="currentColor" stroke-width="1.00" stroke-linecap="butt" stroke-linejoin="miter">
	<path stroke='black'  d='M62.2,277.0 L71.2,277.0 M615.0,277.0 L606.0,277.0  '/>	<g transform="translate(53.9,280.9)" stroke="none" fill="black" font-family="Arial" font-size="12.00"  text-anchor="end">
		<text><tspan font-family="Arial" > 0.05</tspan></text>
	</g>
</g>
<g fill="none" color="black" stroke="currentColor" stroke-width="1.00" stroke-linecap="butt" stroke-linejoin="miter">
	<path stroke='black'  d='M62.2,215.0 L71.2,215.0 M615.0,215.0 L606.0,215.0  '/>	<g transform="translate(53.9,218.9)" stroke="none" fill="black" font-family="Arial" font-size="12.00"  text-anchor="end">
		<text><tspan font-family="Arial" > 0.06</tspan></text>
	</g>
</g>
<g fill="none" color="black" stroke="currentColor" stroke-width="1.00" stroke-linecap="butt" stroke-linejoin="miter">
	<path stroke='black'  d='M62.2,153.0 L71.2,153.0 M615.0,153.0 L606.0,153.0  '/>	<g transform="translate(53.9,156.9)" stroke="none" fill="black" font-family="Arial" font-size="12.00"  text-anchor="end">
		<text><tspan font-family="Arial" > 0.07</tspan></text>
	</g>
</g>
<g fill="none" color="black" stroke="currentColor" stroke-width="1.00" stroke-linecap="butt" stroke-linejoin="miter">
	<path stroke='black'  d='M62.2,91.1 L71.2,91.1 M615.0,91.1 L606.0,91.1  '/>	<g transform="translate(53.9,95.0)" stroke="none" fill="black" font-family="Arial" font-size="12.00"  text-anchor="end">
		<text><tspan font-family="Arial" > 0.08</tspan></text>
	</g>
</g>
<g fill="none" color="black" stroke="currentColor" stroke-width="1.00" stroke-linecap="butt" stroke-linejoin="miter">
	<path stroke='black'  d='M62.2,29.1 L71.2,29.1 M615.0,29.1 L606.0,29.1  '/>	<g transform="translate(53.9,33.0)" stroke="none" fill="black" font-family="Arial" font-size="12.00"  text-anchor="end">
		<text><tspan font-family="Arial" > 0.09</tspan></text>
	</g>
</g>
<g fill="none" color="black" stroke="currentColor" stroke-width="1.00" stroke-linecap="butt" stroke-linejoin="miter">
	<path stroke='black'  d='M62.2,428.0 L62.2,419.0 M62.2,18.1 L62.2,27.1  '/>	<g transform="translate(62.2,449.9)" stroke="none" fill="black" font-family="Arial" font-size="12.00"  text-anchor="middle">
		<text><tspan font-family="Arial" > 0</tspan></text>
	</g>
</g>
<g fill="none" color="black" stroke="currentColor" stroke-width="1.00" stroke-linecap="butt" stroke-linejoin="miter">
	<path stroke='black'  d='M118.0,428.0 L118.0,419.0 M118.0,18.1 L118.0,27.1  '/>	<g transform="translate(118.0,449.9)" stroke="none" fill="black" font-family="Arial" font-size="12.00"  text-anchor="middle">
		<text><tspan font-family="Arial" > 10</tspan></text>
	</g>
</g>
<g fill="none" color="black" stroke="currentColor" stroke-width="1.00" stroke-linecap="butt" stroke-linejoin="miter">
	<path stroke='black'  d='M173.9,428.0 L173.9,419.0 M173.9,18.1 L173.9,27.1  '/>	<g transform="translate(173.9,449.9)" stroke="none" fill="black" font-family="Arial" font-size="12.00"  text-anchor="middle">
		<text><tspan font-family="Arial" > 20</tspan></text>
	</g>
</g>
<g fill="none" color="black" stroke="currentColor" stroke-width="1.00" stroke-linecap="butt" stroke-linejoin="miter">
	<path stroke='black'  d='M229.7,428.0 L229.7,419.0 M229.7,18.1 L229.7,27.1  '/>	<g transform="translate(229.7,449.9)" stroke="none" fill="black" font-family="Arial" font-size="12.00"  text-anchor="middle">
		<text><tspan font-family="Arial" > 30</tspan></text>
	</g>
</g>
<g fill="none" color="black" stroke="currentColor" stroke-width="1.00" stroke-linecap="butt" stroke-linejoin="miter">
	<path stroke='black'  d='M285.6,428.0 L285.6,419.0 M285.6,18.1 L285.6,27.1  '/>	<g transform="translate(285.6,449.9)" stroke="none" fill="black" font-family="Arial" font-size="12.00"  text-anchor="middle">
		<text><tspan font-family="Arial" > 40</tspan></text>
	</g>
</g>
<g fill="none" color="black" stroke="currentColor" stroke-width="1.00" stroke-linecap="butt" stroke-linejoin="miter">
	<path stroke='black'  d='M341.4,428.0 L341.4,419.0 M341.4,18.1 L341.4,27.1  '/>	<g transform="translate(341.4,449.9)" stroke="none" fill="black" font-family="Arial" font-size="12.00"  text-anchor="middle">
		<text><tspan font-family="Arial" > 50</tspan></text>
	</g>
</g>
<g fill="none" color="black" stroke="currentColor" stroke-width="1.00" stroke-linecap="butt" stroke-linejoin="miter">
	<path stroke='black'  d='M397.2,428.0 L397.2,419.0 M397.2,18.1 L397.2,27.1  '/>	<g transform="translate(397.2,449.9)" stroke="none" fill="black" font-family="Arial" font-size="12.00"  text-anchor="middle">
		<text><tspan font-family="Arial" > 60</tspan></text>
	</g>
</g>
<g fill="none" color="black" stroke="currentColor" stroke-width="1.00" stroke-linecap="butt" stroke-linejoin="miter">
	<path stroke='black'  d='M453.1,428.0 L453.1,419.0 M453.1,18.1 L453.1,27.1  '/>	<g transform="translate(453.1,449.9)" stroke="none" fill="black" font-family="Arial" font-size="12.00"  text-anchor="middle">
		<text><tspan font-family="Arial" > 70</tspan></text>
	</g>
</g>
<g fill="none" color="black" stroke="currentColor" stroke-width="1.00" stroke-linecap="butt" stroke-linejoin="miter">
	<path stroke='black'  d='M508.9,428.0 L508.9,419.0 M508.9,18.1 L508.9,27.1  '/>	<g transform="translate(508.9,449.9)" stroke="none" fill="black" font-family="Arial" font-size="12.00"  text-anchor="middle">
		<text><tspan font-family="Arial" > 80</tspan></text>
	</g>
</g>
<g fill="none" color="black" stroke="currentColor" stroke-width="1.00" stroke-linecap="butt" stroke-linejoin="miter">
	<path stroke='black'  d='M564.7,428.0 L564.7,419.0 M564.7,18.1 L564.7,27.1  '/>	<g transform="translate(564.7,449.9)" stroke="none" fill="black" font-family="Arial" font-size="12.00"  text-anchor="middle">
		<text><tspan font-family="Arial" > 90</tspan></text>
	</g>
</g>
<g fill="none" color="black" stroke="currentColor" stroke-width="1.00" stroke-linecap="butt" stroke-linejoin="miter">
</g>
<g fill="none" color="black" stroke="currentColor" stroke-width="1.00" stroke-linecap="butt" stroke-linejoin="miter">
	<path stroke='black'  d='M62.2,18.1 L62.2,428.0 L615.0,428.0 L615.0,18.1 L62.2,18.1 Z  '/></g>
<g fill="none" color="black" stroke="currentColor" stroke-width="1.00" stroke-linecap="butt" stroke-linejoin="miter">
</g>
	<g id="gnuplot_plot_1" ><title>pages+cached+noexternal+nofonts+nosvg+noimg</title>
<g fill="none" color="black" stroke="currentColor" stroke-width="1.00" stroke-linecap="butt" stroke-linejoin="miter">
	<g transform="translate(512.5,467.9)" stroke="none" fill="black" font-family="Arial" font-size="12.00"  text-anchor="end">
		<text><tspan font-family="Arial" >pages+cached+noexternal+nofonts+nosvg+noimg</tspan></text>
	</g>
</g>
<g fill="none" color="black" stroke="currentColor" stroke-width="1.00" stroke-linecap="butt" stroke-linejoin="miter">
	<path stroke='rgb(148,   0, 211)'  d='M520.8,464.0 L563.0,464.0 M62.2,326.5 L67.8,301.1 L73.4,296.2 L79.0,295.6 L84.5,290.6 L90.1,288.1
		L95.7,283.2 L101.3,281.3 L106.9,280.1 L112.5,279.4 L118.0,279.4 L123.6,277.0 L129.2,274.5 L134.8,272.0
		L140.4,265.8 L146.0,264.6 L151.5,264.0 L157.1,257.8 L162.7,255.9 L168.3,254.7 L173.9,250.3 L179.5,248.5
		L185.0,246.6 L190.6,245.4 L196.2,241.0 L201.8,237.3 L207.4,236.1 L213.0,236.1 L218.5,227.4 L224.1,227.4
		L229.7,226.8 L235.3,222.4 L240.9,215.6 L246.5,215.0 L252.1,213.8 L257.6,211.3 L263.2,208.2 L268.8,202.6
		L274.4,202.6 L280.0,202.0 L285.6,198.9 L291.1,198.9 L296.7,197.0 L302.3,196.4 L307.9,193.9 L313.5,191.4
		L319.1,191.4 L324.6,191.4 L330.2,190.2 L335.8,189.6 L341.4,181.5 L347.0,177.2 L352.6,174.1 L358.1,172.9
		L363.7,165.4 L369.3,164.8 L374.9,161.7 L380.5,161.7 L386.1,159.8 L391.6,156.1 L397.2,154.3 L402.8,154.3
		L408.4,148.1 L414.0,147.4 L419.6,145.0 L425.1,144.3 L430.7,142.5 L436.3,141.9 L441.9,141.2 L447.5,140.6
		L453.1,140.0 L458.7,138.1 L464.2,138.1 L469.8,136.3 L475.4,131.3 L481.0,130.1 L486.6,128.2 L492.2,127.6
		L497.7,125.1 L503.3,121.4 L508.9,120.8 L514.5,119.6 L520.1,118.3 L525.7,116.5 L531.2,112.7 L536.8,110.9
		L542.4,110.3 L548.0,101.0 L553.6,99.7 L559.2,96.0 L564.7,91.1 L570.3,91.1 L575.9,88.0 L581.5,83.6
		L587.1,81.1 L592.7,78.7 L598.2,75.6 L603.8,42.7 L609.4,30.9 L615.0,26.0  '/></g>
	</g>
	<g id="gnuplot_plot_2" ><title>pages+cached+noexternal+nofonts+nosvg+noimg+nocss</title>
<g fill="none" color="black" stroke="currentColor" stroke-width="1.00" stroke-linecap="butt" stroke-linejoin="miter">
	<g transform="translate(512.5,485.9)" stroke="none" fill="black" font-family="Arial" font-size="12.00"  text-anchor="end">
		<text><tspan font-family="Arial" >pages+cached+noexternal+nofonts+nosvg+noimg+nocss</tspan></text>
	</g>
</g>
<g fill="none" color="black" stroke="currentColor" stroke-width="1.00" stroke-linecap="butt" stroke-linejoin="miter">
	<path stroke='rgb(  0, 158, 115)'  d='M520.8,482.0 L563.0,482.0 M62.2,420.1 L67.8,303.0 L73.4,301.8 L79.0,300.5 L84.5,299.9 L90.1,293.7
		L95.7,287.5 L101.3,283.8 L106.9,281.9 L112.5,277.0 L118.0,275.1 L123.6,273.9 L129.2,269.5 L134.8,264.6
		L140.4,264.0 L146.0,262.7 L151.5,260.9 L157.1,259.0 L162.7,258.4 L168.3,254.7 L173.9,252.2 L179.5,252.2
		L185.0,252.2 L190.6,249.7 L196.2,237.3 L201.8,234.2 L207.4,231.7 L213.0,230.5 L218.5,229.2 L224.1,224.9
		L229.7,223.1 L235.3,223.1 L240.9,221.2 L246.5,218.1 L252.1,215.6 L257.6,213.8 L263.2,208.2 L268.8,206.3
		L274.4,205.1 L280.0,200.7 L285.6,199.5 L291.1,198.9 L296.7,197.6 L302.3,196.4 L307.9,195.8 L313.5,195.2
		L319.1,191.4 L324.6,190.2 L330.2,181.5 L335.8,181.5 L341.4,181.5 L347.0,179.7 L352.6,178.4 L358.1,177.2
		L363.7,174.7 L369.3,170.4 L374.9,170.4 L380.5,168.5 L386.1,165.4 L391.6,164.8 L397.2,164.2 L402.8,163.6
		L408.4,161.7 L414.0,160.5 L419.6,156.7 L425.1,154.9 L430.7,154.3 L436.3,152.4 L441.9,151.8 L447.5,151.8
		L453.1,151.8 L458.7,144.3 L464.2,143.7 L469.8,142.5 L475.4,141.9 L481.0,141.2 L486.6,140.0 L492.2,138.8
		L497.7,137.5 L503.3,136.9 L508.9,136.3 L514.5,130.7 L520.1,130.7 L525.7,130.1 L531.2,121.4 L536.8,120.2
		L542.4,118.9 L548.0,99.1 L553.6,96.0 L559.2,96.0 L564.7,89.8 L570.3,84.9 L575.9,81.8 L581.5,75.6
		L587.1,73.7 L592.7,64.4 L598.2,63.2 L603.8,53.9 L609.4,53.2 L615.0,47.7  '/></g>
	</g>
<g fill="none" color="#FFFFFF" stroke="rgb(  0, 158, 115)" stroke-width="2.00" stroke-linecap="butt" stroke-linejoin="miter">
</g>
<g fill="none" color="black" stroke="currentColor" stroke-width="2.00" stroke-linecap="butt" stroke-linejoin="miter">
</g>
<g fill="none" color="black" stroke="black" stroke-width="1.00" stroke-linecap="butt" stroke-linejoin="miter">
</g>
<g fill="none" color="black" stroke="currentColor" stroke-width="1.00" stroke-linecap="butt" stroke-linejoin="miter">
	<path stroke='black'  d='M62.2,18.1 L62.2,428.0 L615.0,428.0 L615.0,18.1 L62.2,18.1 Z  '/></g>
<g fill="none" color="black" stroke="currentColor" stroke-width="1.00" stroke-linecap="butt" stroke-linejoin="miter">
</g>
</g>
</svg>
